icons/svg/24x24/time/filled.svg

<svg width="24" height="24" fill="none" xmlns="http://www.w3.org/2000/svg">
  <path fill-rule="evenodd" clip-rule="evenodd" d="M14.707 16.707a.997.997 0 01-1.414 0l-3-3a.996.996 0 01-.279-.871l1-6a.999.999 0 111.972.328l-.915 5.493 2.636 2.636a.999.999 0 010 1.414zm6.735-9.953a5.476 5.476 0 00-4.196-4.196A24.776 24.776 0 0012 2c-1.8 0-3.555.192-5.246.558a5.472 5.472 0 00-4.196 4.196A24.762 24.762 0 002 12c0 1.8.192 3.555.558 5.245a5.47 5.47 0 004.196 4.196C8.445 21.808 10.2 22 12 22c1.8 0 3.555-.192 5.246-.559a5.473 5.473 0 004.196-4.196A24.76 24.76 0 0022 12c0-1.8-.192-3.555-.558-5.246z" fill="#000"/>
</svg>

<svg xmlns="http://www.w3.org/2000/svg" width="24" height="24" viewBox="0 0 24 24">
  <path fill-rule="evenodd" d="M14.707,16.707 C14.512,16.902 14.256,17 14,17 C13.744,17 13.488,16.902 13.293,16.707 L10.293,13.707 C10.064,13.478 9.96,13.154 10.014,12.836 L11.014,6.836 C11.104,6.292 11.615,5.92 12.165,6.014 C12.709,6.104 13.077,6.62 12.986,7.164 L12.071,12.657 L14.707,15.293 C15.098,15.684 15.098,16.316 14.707,16.707 M21.442,6.754 C20.987,4.652 19.348,3.013 17.246,2.558 C15.555,2.192 13.8,2 12,2 C10.2,2 8.445,2.192 6.754,2.558 C4.652,3.012 3.012,4.651 2.558,6.754 C2.192,8.444 2,10.199 2,12 C2,13.8 2.192,15.555 2.558,17.245 C3.012,19.348 4.651,20.987 6.754,21.441 C8.445,21.808 10.2,22 12,22 C13.8,22 15.555,21.808 17.246,21.441 C19.348,20.987 20.987,19.348 21.442,17.245 C21.808,15.555 22,13.8 22,12 C22,10.2 21.808,8.445 21.442,6.754"/>
</svg>
